assets/dude/Did–Merle.svg

<svg width="235" height="104" viewBox="0 0 235 104" fill="none" xmlns="http://www.w3.org/2000/svg">
<path d="M85.3163 38.9799C85.3163 26.52 87.6963 13.78 87.6963 12.52C87.6963 11.26 86.5763 11.2599 86.4363 11.2599C81.5363 11.2599 75.6563 8.17995 75.6563 1.45995C75.6563 0.199951 74.5363 0.199951 74.3963 0.199951C71.4563 0.199951 60.2563 1.73995 42.8963 1.73995C25.6763 1.73995 14.4763 0.199951 11.5363 0.199951C11.3963 0.199951 10.2763 0.199951 10.2763 1.45995C10.2763 5.93995 6.07629 9.01995 1.45629 9.01995C1.31629 9.01995 0.196289 9.01995 0.196289 10.28C0.196289 11.5399 2.71629 24 2.71629 36.4599C2.71629 37.1599 3.27629 37.72 3.97629 37.72H17.8363C18.5363 37.72 19.0963 38.28 19.0963 38.9799V64.74C19.0963 65.44 18.5363 66 17.8363 66H3.97629C3.27629 66 2.71629 66.56 2.71629 67.26C2.71629 79.72 0.196289 92.18 0.196289 93.44C0.196289 94.7 1.31629 94.7 1.45629 94.7C6.07629 94.7 10.2763 97.78 10.2763 102.26C10.2763 103.52 11.3963 103.52 11.5363 103.52C14.4763 103.52 25.6763 101.98 42.8963 101.98C60.2563 101.98 71.4563 103.52 74.3963 103.52C74.5363 103.52 75.6563 103.52 75.6563 102.26C75.6563 95.54 81.5363 92.46 86.4363 92.46C86.5763 92.46 87.6963 92.46 87.6963 91.2C87.6963 89.94 85.3163 77.2 85.3163 64.74V38.9799ZM75.2363 54.7999C75.2363 60.9599 70.1963 66 64.0363 66H30.4363C29.7363 66 29.1763 65.44 29.1763 64.74V38.9799C29.1763 38.28 29.7363 37.72 30.4363 37.72H64.0363C70.1963 37.72 75.2363 42.76 75.2363 48.92V54.7999Z" fill="#FF1C31"/>
<path d="M137.675 65.72H123.815C123.115 65.72 122.555 65.16 122.555 64.46V39.26C122.555 38.7 122.975 38.1399 123.535 38H137.675C138.375 38 138.935 37.44 138.935 36.74C138.935 24.28 141.455 11.5399 141.455 10.28C141.455 9.01995 140.335 9.01995 140.195 9.01995C135.575 9.01995 131.375 5.93995 131.375 1.45995C131.375 0.199951 130.255 0.199951 130.115 0.199951C127.175 0.199951 123.255 1.45995 117.515 1.45995C111.775 1.45995 107.855 0.199951 104.915 0.199951C104.775 0.199951 103.655 0.199951 103.655 1.45995C103.655 5.93995 99.4552 9.01995 94.8352 9.01995C94.6952 9.01995 93.5752 9.01995 93.5752 10.28C93.5752 11.5399 96.0952 24.28 96.0952 36.74C96.0952 37.44 96.6552 38 97.3552 38H111.495C112.055 38.1399 112.475 38.7 112.475 39.26V64.46C112.475 65.16 111.915 65.72 111.215 65.72H97.3552C96.6552 65.72 96.0952 66.28 96.0952 66.9799C96.0952 79.4399 93.5752 92.18 93.5752 93.44C93.5752 94.7 94.6952 94.7 94.8352 94.7C99.4552 94.7 103.655 97.78 103.655 102.26C103.655 103.52 104.775 103.52 104.915 103.52C107.855 103.52 111.775 102.26 117.515 102.26C123.255 102.26 127.175 103.52 130.115 103.52C130.255 103.52 131.375 103.52 131.375 102.26C131.375 97.78 135.575 94.7 140.195 94.7C140.335 94.7 141.455 94.7 141.455 93.44C141.455 92.18 138.935 79.4399 138.935 66.9799C138.935 66.28 138.375 65.72 137.675 65.72Z" fill="#FF1C31"/>
<path d="M232.426 38.9799C232.426 26.52 234.806 13.78 234.806 12.52C234.806 11.26 233.686 11.2599 233.546 11.2599C228.646 11.2599 222.766 8.17995 222.766 1.45995C222.766 0.199951 221.646 0.199951 221.506 0.199951C218.566 0.199951 207.366 1.73995 190.006 1.73995C172.786 1.73995 161.586 0.199951 158.646 0.199951C158.506 0.199951 157.386 0.199951 157.386 1.45995C157.386 5.93995 153.186 9.01995 148.566 9.01995C148.426 9.01995 147.306 9.01995 147.306 10.28C147.306 11.5399 149.826 24 149.826 36.4599C149.826 37.1599 150.386 37.72 151.086 37.72H164.946C165.646 37.72 166.206 38.28 166.206 38.9799V64.74C166.206 65.44 165.646 66 164.946 66H151.086C150.386 66 149.826 66.56 149.826 67.26C149.826 79.72 147.306 92.18 147.306 93.44C147.306 94.7 148.426 94.7 148.566 94.7C153.186 94.7 157.386 97.78 157.386 102.26C157.386 103.52 158.506 103.52 158.646 103.52C161.586 103.52 172.786 101.98 190.006 101.98C207.366 101.98 218.566 103.52 221.506 103.52C221.646 103.52 222.766 103.52 222.766 102.26C222.766 95.54 228.646 92.46 233.546 92.46C233.686 92.46 234.806 92.46 234.806 91.2C234.806 89.94 232.426 77.2 232.426 64.74V38.9799ZM222.346 54.7999C222.346 60.9599 217.306 66 211.146 66H177.546C176.846 66 176.286 65.44 176.286 64.74V38.9799C176.286 38.28 176.846 37.72 177.546 37.72H211.146C217.306 37.72 222.346 42.76 222.346 48.92V54.7999Z" fill="#FF1C31"/>
</svg>

<svg xmlns="http://www.w3.org/2000/svg" fill="none" viewBox="0 0 235 104"><path fill="#FF1C31" d="M85.316 38.98c0-12.46 2.38-25.2 2.38-26.46 0-1.26-1.12-1.26-1.26-1.26-4.9 0-10.78-3.08-10.78-9.8 0-1.26-1.12-1.26-1.26-1.26-2.94 0-14.14 1.54-31.5 1.54-17.22 0-28.42-1.54-31.36-1.54-.14 0-1.26 0-1.26 1.26 0 4.48-4.2 7.56-8.82 7.56-.14 0-1.26 0-1.26 1.26S2.716 24 2.716 36.46c0 .7.56 1.26 1.26 1.26h13.86c.7 0 1.26.56 1.26 1.26v25.76c0 .7-.56 1.26-1.26 1.26H3.976c-.7 0-1.26.56-1.26 1.26 0 12.46-2.52 24.92-2.52 26.18 0 1.26 1.12 1.26 1.26 1.26 4.62 0 8.82 3.08 8.82 7.56 0 1.26 1.12 1.26 1.26 1.26 2.94 0 14.14-1.54 31.36-1.54 17.36 0 28.56 1.54 31.5 1.54.14 0 1.26 0 1.26-1.26 0-6.72 5.88-9.8 10.78-9.8.14 0 1.26 0 1.26-1.26s-2.38-14-2.38-26.46V38.98zM75.236 54.8c0 6.16-5.04 11.2-11.2 11.2h-33.6c-.7 0-1.26-.56-1.26-1.26V38.98c0-.7.56-1.26 1.26-1.26h33.6c6.16 0 11.2 5.04 11.2 11.2v5.88zM137.675 65.72h-13.86c-.7 0-1.26-.56-1.26-1.26v-25.2c0-.56.42-1.12.98-1.26h14.14c.7 0 1.26-.56 1.26-1.26 0-12.46 2.52-25.2 2.52-26.46 0-1.26-1.12-1.26-1.26-1.26-4.62 0-8.82-3.08-8.82-7.56 0-1.26-1.12-1.26-1.26-1.26-2.94 0-6.86 1.26-12.6 1.26-5.74 0-9.66-1.26-12.6-1.26-.14 0-1.26 0-1.26 1.26 0 4.48-4.2 7.56-8.82 7.56-.14 0-1.26 0-1.26 1.26s2.52 14 2.52 26.46c0 .7.56 1.26 1.26 1.26h14.14c.56.14.98.7.98 1.26v25.2c0 .7-.56 1.26-1.26 1.26h-13.86c-.7 0-1.26.56-1.26 1.26 0 12.46-2.52 25.2-2.52 26.46 0 1.26 1.12 1.26 1.26 1.26 4.62 0 8.82 3.08 8.82 7.56 0 1.26 1.12 1.26 1.26 1.26 2.94 0 6.86-1.26 12.6-1.26 5.74 0 9.66 1.26 12.6 1.26.14 0 1.26 0 1.26-1.26 0-4.48 4.2-7.56 8.82-7.56.14 0 1.26 0 1.26-1.26s-2.52-14-2.52-26.46c0-.7-.56-1.26-1.26-1.26zM232.426 38.98c0-12.46 2.38-25.2 2.38-26.46 0-1.26-1.12-1.26-1.26-1.26-4.9 0-10.78-3.08-10.78-9.8 0-1.26-1.12-1.26-1.26-1.26-2.94 0-14.14 1.54-31.5 1.54-17.22 0-28.42-1.54-31.36-1.54-.14 0-1.26 0-1.26 1.26 0 4.48-4.2 7.56-8.82 7.56-.14 0-1.26 0-1.26 1.26s2.52 13.72 2.52 26.18c0 .7.56 1.26 1.26 1.26h13.86c.7 0 1.26.56 1.26 1.26v25.76c0 .7-.56 1.26-1.26 1.26h-13.86c-.7 0-1.26.56-1.26 1.26 0 12.46-2.52 24.92-2.52 26.18 0 1.26 1.12 1.26 1.26 1.26 4.62 0 8.82 3.08 8.82 7.56 0 1.26 1.12 1.26 1.26 1.26 2.94 0 14.14-1.54 31.36-1.54 17.36 0 28.56 1.54 31.5 1.54.14 0 1.26 0 1.26-1.26 0-6.72 5.88-9.8 10.78-9.8.14 0 1.26 0 1.26-1.26s-2.38-14-2.38-26.46V38.98zm-10.08 15.82c0 6.16-5.04 11.2-11.2 11.2h-33.6c-.7 0-1.26-.56-1.26-1.26V38.98c0-.7.56-1.26 1.26-1.26h33.6c6.16 0 11.2 5.04 11.2 11.2v5.88z"/></svg>
